X: 33345
T: Queen Of May, The
R: reel
M: 4/4
K: Edorian
Bcdf ecdB|AD (3FED FAAd|Bcdf edBc|dBA=c BEGA|
Bcdf ecdB|AD (3FED FAAd|Bcdf edBc|dBAd BE E2||
(3Bcd eg fdec|defg afed|(3Bcd eg fdec|dBA=c BEGA|
(3Bcd eg fdec|defg afeg|afba f3e|dBAd BE E2|
B2 eB fBeB|defa afed|B2 eB fBeB|dBA=c BEGA|
B2 eB fBeB|defa afeg|afba f3e|dBAd BE E2||

